packages/match-logos/mono/svg/crisis-text-line.svg

<svg fill="none" height="40" viewBox="0 0 132 40" width="132" xmlns="http://www.w3.org/2000/svg" xmlns:xlink="http://www.w3.org/1999/xlink"><clipPath id="a"><path d="m0 0h131.765v40h-131.765z"/></clipPath><g clip-path="url(#a)"><path clip-rule="evenodd" d="m18.5882 16.2353c.1177 0 .353.1176.353.2353.1176.1176.1176.2353.1176.4706v1.647c0 .2353 0 .353-.2353.4706-.1176.1177-.3529.2353-.4706.1177-.3529 0-.8235 0-1.2941 0v-2.9412zm108.4708-16.2353c2.588.117647 4.706 2.23529 4.706 4.82353v30.47057c0 2.5883-2.118 4.7059-4.706 4.7059h-122.23547c-2.70588 0-4.82353-2.1176-4.82353-4.7059v-30.58822c0-1.17647.470588-2.47059 1.41176-3.29412.94118-.823525 2.11765-1.41176 3.41177-1.41176zm-112.8237 23.8824c.1176-.7059 0-1.5295 0-2.353-.5882 0-1.1765 0-1.7647 0-.353 0-.4706.1177-.4706.353v1.647c0 .5882-.2353.8235-.9412.8235-.5882 0-.9412-.3529-.9412-1.0588 0-2.1176 0-4.3529 0-6.4706 0-.7059.2353-.9411.9412-.9411s1.0588.2352 1.0588.9411v1.4118.3529h2.1177c0-.8235 0-1.5294 0-2.3529s-.5882-1.5294-1.4118-1.7647c-.8235-.2353-1.7647-.353-2.5882-.1177-1.29412.1177-2.2353 1.2942-2.11765 2.4706v6.9412c0 .9412.58823 1.7647 1.41176 2 .94119.3529 2.11769.4706 3.05879.1177.9412-.1177 1.6471-.9412 1.6471-2zm5.2941 2h2c-.1176-.5883-.2353-1.1765-.2353-1.6471 0-.5882 0-1.1765 0-1.7647.2353-1.0588-.3529-2-1.4117-2.353l.4705-.2352c.353-.1177.7059-.4706.7059-.9412 0-.9412.1177-2 0-3.0588 0-.7059-.5882-1.2942-1.2941-1.2942-.2353 0-.4706-.1176-.7059-.1176h-3.8823-.353v11.4118h2.1177v-4.9412h1.0588c.7059 0 .9412.2353.9412.9412v2.5882c0 .3529.1176.7059.2353 1.0588.2353.2353.2353.353.3529.353zm4.7059 0v-11.2942c-.5882 0-1.1765 0-1.6471 0-.3529 0-.4706.1177-.4706.4706v6.4706 4c0 .1177.1177.353.2353.353zm7.0588-3.4118c.1177-1.0588-.3529-2.1177-1.4117-2.7059l-1.7648-1.1765c-.7058-.3529-1.0588-1.2941-.8235-2 .1177-.4706.4706-.5882.9412-.5882s.7059.3529.7059.7059v.9412c0 .1176.1176.2353.2353.2353h1.8823c0-.4706 0-1.0589 0-1.5295-.1176-.7058-.4706-1.2941-1.1764-1.647-.8236-.353-1.7648-.4706-2.5883-.2353-1.1765.1176-2.1176 1.1765-2.1176 2.3529v.8236c0 .9411.4706 1.8823 1.2941 2.4705.7059.4706 1.2941.9412 2 1.2942.4706.2353.7059.7058.7059 1.1764v1.1765c0 .2353-.1177.3529-.2353.5882-.1177.1177-.353.2353-.5883.2353-.7058.1177-1.0588-.2353-1.0588-.9411 0-.4706 0-1.0589 0-1.6471-.7059 0-1.2941 0-1.8823 0-.1177.1176-.2353.2353-.2353.3529v1.6471c0 1.0588.7059 1.8824 1.7647 2.1176.8235.2353 1.647.2353 2.4706.1177 1.1764 0 2.1176-1.0588 2.1176-2.2353-.2353-.5882-.2353-1.0588-.2353-1.5294zm2.8235-3.2941c0-1.4118 0-2.7059 0-4.1177 0-.3529-.1176-.4706-.4705-.4706-.353 0-.8236 0-1.1765 0-.4706 0-.4706.1177-.4706.4706v10.353.2353c0 .1176.1176.2353.2353.2353h1.8823zm7.0589 3.4117c.1176-1.0588-.4706-2.1176-1.5294-2.7058-.5883-.353-1.1765-.8236-1.7647-1.1765-.7059-.353-1.0589-1.1765-.8236-1.8824.1177-.5882.353-.8235.9412-.8235s.8235.2353.8235.8235v1.0589h2.1177c0-.4706 0-1.0589 0-1.5295 0-.7058-.4706-1.4117-1.1765-1.647-1.0588-.4706-2.3529-.4706-3.4118 0-.4705.2353-.8235.5882-1.0588.9412-.7059 1.5294-.2353 3.4117 1.1765 4.4705l2 1.2942c.3529.2353.5882.5882.7059 1.0588v1.2941c-.1177.4706-.353.7059-.8236.7059-.7058.1176-1.0588-.2353-1.0588-.9412 0-.4706 0-1.0588 0-1.647-.7059 0-1.2941 0-1.8823 0-.1177 0-.2353.2352-.2353.3529v1.5294c0 1.0588.7059 1.8824 1.647 2.1177.8236.2352 1.7647.3529 2.5883.1176 1.0588-.1176 2-1.0588 2-2.1176-.2353-.353-.2353-.9412-.2353-1.2942zm10-7.5294c0-.3529-.1177-.4706-.4706-.3529h-5.4118-.3529v1.647h2v9.0589.3529c0 .1177.1176.2353.2353.2353h2v-9.6471h2.1176c-.1176-.5882-.1176-.9411-.1176-1.2941zm6 10.7059c0-.4706 0-1.0588 0-1.6471h-3.5294v-3.4117h.4705 2.2353c.1177 0 .353-.1177.353-.2353 0-.4706 0-.9412 0-1.5294h-3.1765v-2.5883h3.2941v-1.7647h-5.4117v11.2942h5.4117c.2353 0 .353-.1177.353-.1177zm5.5294.1177h2.1176c-.1176-.2353-.1176-.353-.2353-.4706-.7058-1.6471-1.4117-3.4118-2.1176-5.0589-.1177-.2353-.1177-.4705 0-.7058.5882-1.4118 1.1765-2.9412 1.8823-4.353.1177-.2353.1177-.3529.2353-.5882-.7058 0-1.4117 0-2 0-.2353 0-.4706.1176-.4706.3529-.1176.4706-.3529.9412-.4705 1.5294l-.353 1.1765c-.3529-.8235-.7059-1.7647-.9412-2.5882 0-.1177-.2353-.353-.2353-.353-.7058 0-1.4117 0-2.1176 0l.2353.4706c.7059 1.4118 1.1765 2.8235 1.8823 4.2353.1177.353.1177.7059 0 .9412-.7058 1.647-1.4117 3.2941-2.1176 4.9412-.3529.1176-.3529.2353-.4706.4706h1.6471c.2353 0 .4706 0 .5882-.1177.2353-.1176.3529-.3529.3529-.4706.353-1.0588.7059-2 1.0589-3.1765l.2353.4706c.3529.9412.7058 2 1.0588 2.9412 0 .1177.1176.353.2353.353zm8.5882-10.8236c0-.3529-.1176-.4706-.4706-.4706h-5.8823v1.6471h2.1176v9.0588.353c0 .1176.1177.2353.2353.2353h1.8824v-9.6471h2.1176c0-.4706 0-.8235 0-1.1765zm9.0589 10.8236v-1.7648h-3.0589v-9.5294h-2.1176v.2353 10.5883c0 .3529.1176.3529.4706.3529h4.3529c.1177.1177.2353.1177.353.1177zm2.5882-5.5295c0-1.7647 0-3.5294 0-5.2941 0-.3529 0-.4706-.4706-.4706s-.9412 0-1.4118 0c-.2353 0-.3529.1177-.3529.353v1.7647 8.8235c0 .353.1176.4706.4706.4706h1.1764c.353 0 .4706-.1176.4706-.4706.1177-1.7647.1177-3.5294.1177-5.1765zm6.8235 5.5295c.353 0 .4706-.1177.4706-.4706 0-3.4118 0-6.8236 0-10.2353 0-.1177 0-.353 0-.4706-.5882 0-1.0588 0-1.5294 0-.353 0-.4706.1176-.4706.4706.1176 2.4706.2353 4.8235.2353 7.2941l-.1177-.353c-.5882-2.2352-1.1764-4.5882-1.7647-6.9411-.1176-.2353-.2353-.353-.4706-.353-.5882 0-1.4117 0-1.7647 0-.4705 0-.5882.1177-.5882.5883v8.2353 2.1176c0 .1177.1177.3529.2353.3529h1.7647l-.2353-7.8823c.1177.1176.1177.2353.1177.3529.5882 2.353 1.1764 4.7059 1.647 7.0589.1177.3529.2353.4705.5883.4705.7058-.2352 1.2941-.2352 1.8823-.2352zm7.0588-.1177c0-.5882 0-1.0588 0-1.6471h-3.5294v-3.4117h3.0588v-1.7647h-3.1764v-2.5883h3.4117c0-.4705 0-.9411 0-1.2941 0-.3529-.1176-.4706-.4706-.4706-1.5294 0-3.0588 0-4.5882 0-.3529 0-.4706.1177-.4706.4706v10.353c0 .1176-.1176.1176 0 .2353.1177.1176.1177.2353.2353.2353h5.1765c.1176 0 .3529-.1177.3529-.1177zm6.1175 3.7647v-18.2353h-2.117v18.2353z" fill="#1f304c" fill-rule="evenodd"/></g></svg>

<svg width="132" height="40" viewBox="0 0 132 40" fill="none" xmlns="http://www.w3.org/2000/svg">
<g clip-path="url(#clip0)">
<path fill-rule="evenodd" clip-rule="evenodd" d="M18.5882 16.2353C18.7059 16.2353 18.9412 16.3529 18.9412 16.4706C19.0588 16.5882 19.0588 16.7059 19.0588 16.9412C19.0588 17.5294 19.0588 18 19.0588 18.5882C19.0588 18.8235 19.0588 18.9412 18.8235 19.0588C18.7059 19.1765 18.4706 19.2941 18.3529 19.1765C18 19.1765 17.5294 19.1765 17.0588 19.1765V16.2353C17.6471 16.2353 18.1176 16.2353 18.5882 16.2353ZM127.059 0C129.647 0.117647 131.765 2.23529 131.765 4.82353V35.2941C131.765 37.8824 129.647 40 127.059 40H4.82353C2.11765 40 0 37.8824 0 35.2941V4.70588C0 3.52941 0.470588 2.23529 1.41176 1.41176C2.35294 0.588235 3.52941 0 4.82353 0H127.059ZM14.2353 23.8824C14.3529 23.1765 14.2353 22.3529 14.2353 21.5294C13.6471 21.5294 13.0588 21.5294 12.4706 21.5294C12.1176 21.5294 12 21.6471 12 21.8824C12 22.4706 12 22.9412 12 23.5294C12 24.1176 11.7647 24.3529 11.0588 24.3529C10.4706 24.3529 10.1176 24 10.1176 23.2941C10.1176 21.1765 10.1176 18.9412 10.1176 16.8235C10.1176 16.1176 10.3529 15.8824 11.0588 15.8824C11.7647 15.8824 12.1176 16.1176 12.1176 16.8235C12.1176 17.2941 12.1176 17.7647 12.1176 18.2353C12.1176 18.3529 12.1176 18.4706 12.1176 18.5882H14.2353C14.2353 17.7647 14.2353 17.0588 14.2353 16.2353C14.2353 15.4118 13.6471 14.7059 12.8235 14.4706C12 14.2353 11.0588 14.1176 10.2353 14.3529C8.94118 14.4706 8 15.6471 8.11765 16.8235C8.11765 19.1765 8.11765 21.4118 8.11765 23.7647C8.11765 24.7059 8.70588 25.5294 9.52941 25.7647C10.4706 26.1176 11.6471 26.2353 12.5882 25.8824C13.5294 25.7647 14.2353 24.9412 14.2353 23.8824ZM19.5294 25.8824C20.2353 25.8824 20.9412 25.8824 21.5294 25.8824C21.4118 25.2941 21.2941 24.7059 21.2941 24.2353C21.2941 23.6471 21.2941 23.0588 21.2941 22.4706C21.5294 21.4118 20.9412 20.4706 19.8824 20.1176L20.3529 19.8824C20.7059 19.7647 21.0588 19.4118 21.0588 18.9412C21.0588 18 21.1765 16.9412 21.0588 15.8824C21.0588 15.1765 20.4706 14.5882 19.7647 14.5882C19.5294 14.5882 19.2941 14.4706 19.0588 14.4706H15.1765H14.8235V25.8824H16.9412V20.9412C17.2941 20.9412 17.6471 20.9412 18 20.9412C18.7059 20.9412 18.9412 21.1765 18.9412 21.8824C18.9412 22.7059 18.9412 23.6471 18.9412 24.4706C18.9412 24.8235 19.0588 25.1765 19.1765 25.5294C19.4118 25.7647 19.4118 25.8824 19.5294 25.8824ZM24.2353 25.8824V14.5882C23.6471 14.5882 23.0588 14.5882 22.5882 14.5882C22.2353 14.5882 22.1176 14.7059 22.1176 15.0588C22.1176 17.1765 22.1176 19.4118 22.1176 21.5294C22.1176 22.8235 22.1176 24.1176 22.1176 25.5294C22.1176 25.6471 22.2353 25.8824 22.3529 25.8824C22.9412 25.8824 23.6471 25.8824 24.2353 25.8824ZM31.2941 22.4706C31.4118 21.4118 30.9412 20.3529 29.8824 19.7647L28.1176 18.5882C27.4118 18.2353 27.0588 17.2941 27.2941 16.5882C27.4118 16.1176 27.7647 16 28.2353 16C28.7059 16 28.9412 16.3529 28.9412 16.7059C28.9412 17.0588 28.9412 17.2941 28.9412 17.6471C28.9412 17.7647 29.0588 17.8824 29.1765 17.8824C29.7647 17.8824 30.4706 17.8824 31.0588 17.8824C31.0588 17.4118 31.0588 16.8235 31.0588 16.3529C30.9412 15.6471 30.5882 15.0588 29.8824 14.7059C29.0588 14.3529 28.1176 14.2353 27.2941 14.4706C26.1176 14.5882 25.1765 15.6471 25.1765 16.8235C25.1765 17.0588 25.1765 17.4118 25.1765 17.6471C25.1765 18.5882 25.6471 19.5294 26.4706 20.1176C27.1765 20.5882 27.7647 21.0588 28.4706 21.4118C28.9412 21.6471 29.1765 22.1176 29.1765 22.5882C29.1765 22.9412 29.1765 23.4118 29.1765 23.7647C29.1765 24 29.0588 24.1176 28.9412 24.3529C28.8235 24.4706 28.5882 24.5882 28.3529 24.5882C27.6471 24.7059 27.2941 24.3529 27.2941 23.6471C27.2941 23.1765 27.2941 22.5882 27.2941 22C26.5882 22 26 22 25.4118 22C25.2941 22.1176 25.1765 22.2353 25.1765 22.3529C25.1765 22.9412 25.1765 23.4118 25.1765 24C25.1765 25.0588 25.8824 25.8824 26.9412 26.1176C27.7647 26.3529 28.5882 26.3529 29.4118 26.2353C30.5882 26.2353 31.5294 25.1765 31.5294 24C31.2941 23.4118 31.2941 22.9412 31.2941 22.4706ZM34.1176 19.1765C34.1176 17.7647 34.1176 16.4706 34.1176 15.0588C34.1176 14.7059 34 14.5882 33.6471 14.5882C33.2941 14.5882 32.8235 14.5882 32.4706 14.5882C32 14.5882 32 14.7059 32 15.0588C32 18.4706 32 21.8824 32 25.4118C32 25.5294 32 25.5294 32 25.6471C32 25.7647 32.1176 25.8824 32.2353 25.8824C32.8235 25.8824 33.5294 25.8824 34.1176 25.8824V19.1765ZM41.1765 22.5882C41.2941 21.5294 40.7059 20.4706 39.6471 19.8824C39.0588 19.5294 38.4706 19.0588 37.8824 18.7059C37.1765 18.3529 36.8235 17.5294 37.0588 16.8235C37.1765 16.2353 37.4118 16 38 16C38.5882 16 38.8235 16.2353 38.8235 16.8235C38.8235 17.1765 38.8235 17.5294 38.8235 17.8824H40.9412C40.9412 17.4118 40.9412 16.8235 40.9412 16.3529C40.9412 15.6471 40.4706 14.9412 39.7647 14.7059C38.7059 14.2353 37.4118 14.2353 36.3529 14.7059C35.8824 14.9412 35.5294 15.2941 35.2941 15.6471C34.5882 17.1765 35.0588 19.0588 36.4706 20.1176L38.4706 21.4118C38.8235 21.6471 39.0588 22 39.1765 22.4706C39.1765 22.9412 39.1765 23.2941 39.1765 23.7647C39.0588 24.2353 38.8235 24.4706 38.3529 24.4706C37.6471 24.5882 37.2941 24.2353 37.2941 23.5294C37.2941 23.0588 37.2941 22.4706 37.2941 21.8824C36.5882 21.8824 36 21.8824 35.4118 21.8824C35.2941 21.8824 35.1765 22.1176 35.1765 22.2353C35.1765 22.7059 35.1765 23.2941 35.1765 23.7647C35.1765 24.8235 35.8824 25.6471 36.8235 25.8824C37.6471 26.1176 38.5882 26.2353 39.4118 26C40.4706 25.8824 41.4118 24.9412 41.4118 23.8824C41.1765 23.5294 41.1765 22.9412 41.1765 22.5882ZM51.1765 15.0588C51.1765 14.7059 51.0588 14.5882 50.7059 14.7059H45.2941H44.9412V16.3529H46.9412V25.4118C46.9412 25.5294 46.9412 25.6471 46.9412 25.7647C46.9412 25.8824 47.0588 26 47.1765 26H49.1765V16.3529H51.2941C51.1765 15.7647 51.1765 15.4118 51.1765 15.0588ZM57.1765 25.7647C57.1765 25.2941 57.1765 24.7059 57.1765 24.1176H53.6471V20.7059H54.1176C54.8235 20.7059 55.6471 20.7059 56.3529 20.7059C56.4706 20.7059 56.7059 20.5882 56.7059 20.4706C56.7059 20 56.7059 19.5294 56.7059 18.9412H53.5294V16.3529H56.8235V14.5882H51.4118V25.8824H56.8235C57.0588 25.8824 57.1765 25.7647 57.1765 25.7647ZM62.7059 25.8824C63.4118 25.8824 64 25.8824 64.8235 25.8824C64.7059 25.6471 64.7059 25.5294 64.5882 25.4118C63.8824 23.7647 63.1765 22 62.4706 20.3529C62.3529 20.1176 62.3529 19.8824 62.4706 19.6471C63.0588 18.2353 63.6471 16.7059 64.3529 15.2941C64.4706 15.0588 64.4706 14.9412 64.5882 14.7059C63.8824 14.7059 63.1765 14.7059 62.5882 14.7059C62.3529 14.7059 62.1176 14.8235 62.1176 15.0588C62 15.5294 61.7647 16 61.6471 16.5882L61.2941 17.7647C60.9412 16.9412 60.5882 16 60.3529 15.1765C60.3529 15.0588 60.1176 14.8235 60.1176 14.8235C59.4118 14.8235 58.7059 14.8235 58 14.8235L58.2353 15.2941C58.9412 16.7059 59.4118 18.1176 60.1176 19.5294C60.2353 19.8824 60.2353 20.2353 60.1176 20.4706C59.4118 22.1176 58.7059 23.7647 58 25.4118C57.6471 25.5294 57.6471 25.6471 57.5294 25.8824C58.1177 25.8824 58.5882 25.8824 59.1765 25.8824C59.4118 25.8824 59.6471 25.8824 59.7647 25.7647C60 25.6471 60.1176 25.4118 60.1176 25.2941C60.4706 24.2353 60.8235 23.2941 61.1765 22.1176L61.4118 22.5882C61.7647 23.5294 62.1176 24.5882 62.4706 25.5294C62.4706 25.6471 62.5882 25.8824 62.7059 25.8824ZM71.2941 15.0588C71.2941 14.7059 71.1765 14.5882 70.8235 14.5882H64.9412V16.2353H67.0588V25.2941C67.0588 25.4118 67.0588 25.5294 67.0588 25.6471C67.0588 25.7647 67.1765 25.8824 67.2941 25.8824C67.8824 25.8824 68.5882 25.8824 69.1765 25.8824V16.2353H71.2941C71.2941 15.7647 71.2941 15.4118 71.2941 15.0588ZM80.353 25.8824V24.1176H77.2941V14.5882H75.1765C75.1765 14.7059 75.1765 14.8235 75.1765 14.8235C75.1765 18.3529 75.1765 21.8824 75.1765 25.4118C75.1765 25.7647 75.2941 25.7647 75.6471 25.7647C77.0588 25.7647 78.5882 25.7647 80 25.7647C80.1177 25.8824 80.2353 25.8824 80.353 25.8824ZM82.9412 20.3529C82.9412 18.5882 82.9412 16.8235 82.9412 15.0588C82.9412 14.7059 82.9412 14.5882 82.4706 14.5882C82 14.5882 81.5294 14.5882 81.0588 14.5882C80.8235 14.5882 80.7059 14.7059 80.7059 14.9412C80.7059 15.5294 80.7059 16.1176 80.7059 16.7059C80.7059 19.6471 80.7059 22.5882 80.7059 25.5294C80.7059 25.8824 80.8235 26 81.1765 26C81.5294 26 82 26 82.3529 26C82.7059 26 82.8235 25.8824 82.8235 25.5294C82.9412 23.7647 82.9412 22 82.9412 20.3529ZM89.7647 25.8824C90.1177 25.8824 90.2353 25.7647 90.2353 25.4118C90.2353 22 90.2353 18.5882 90.2353 15.1765C90.2353 15.0588 90.2353 14.8235 90.2353 14.7059C89.6471 14.7059 89.1765 14.7059 88.7059 14.7059C88.3529 14.7059 88.2353 14.8235 88.2353 15.1765C88.3529 17.6471 88.4706 20 88.4706 22.4706L88.3529 22.1176C87.7647 19.8824 87.1765 17.5294 86.5882 15.1765C86.4706 14.9412 86.3529 14.8235 86.1176 14.8235C85.5294 14.8235 84.7059 14.8235 84.3529 14.8235C83.8824 14.8235 83.7647 14.9412 83.7647 15.4118C83.7647 18.1176 83.7647 20.9412 83.7647 23.6471C83.7647 24.3529 83.7647 25.0588 83.7647 25.7647C83.7647 25.8824 83.8824 26.1176 84 26.1176C84.5882 26.1176 85.1765 26.1176 85.7647 26.1176L85.5294 18.2353C85.6471 18.3529 85.6471 18.4706 85.6471 18.5882C86.2353 20.9412 86.8235 23.2941 87.2941 25.6471C87.4118 26 87.5294 26.1176 87.8824 26.1176C88.5882 25.8824 89.1765 25.8824 89.7647 25.8824ZM96.8235 25.7647C96.8235 25.1765 96.8235 24.7059 96.8235 24.1176H93.2941V20.7059H96.3529V18.9412H93.1765V16.3529H96.5882C96.5882 15.8824 96.5882 15.4118 96.5882 15.0588C96.5882 14.7059 96.4706 14.5882 96.1176 14.5882C94.5882 14.5882 93.0588 14.5882 91.5294 14.5882C91.1765 14.5882 91.0588 14.7059 91.0588 15.0588C91.0588 18.4706 91.0588 22 91.0588 25.4118C91.0588 25.5294 90.9412 25.5294 91.0588 25.6471C91.1765 25.7647 91.1765 25.8824 91.2941 25.8824C93.0588 25.8824 94.7059 25.8824 96.4706 25.8824C96.5882 25.8824 96.8235 25.7647 96.8235 25.7647ZM102.941 29.5294V11.2941H100.824V29.5294H102.941Z" fill="#1F304C"/>
</g>
<defs>
<clipPath id="clip0">
<rect width="131.765" height="40" fill="white"/>
</clipPath>
</defs>
</svg>
